X:301
T:30. THE FLYING SCOTSMAN (32 bar reels)
T:Farewell to Whisky
R:Reel
O:Scotland
M:4/4
C:Neil Gow
K:G
G|\
"G"D2G2 B2AG"Em"A2E2 E3G|"G"D2G2 B2AG|d2B2 B3d|\
"C"e2g2 "G"d2B2|"Am"cBAG "D"A3B|"G"D2G2 "D"BAGA|"G"B2G2 G3::
B|\
"G"d2B2 g2B2|"Am"cBAG "D"A2Bc|"G"d2B2 g2d2|"Em"e2g2 z3d|\
"C"e2g2 "G"d2B2|"Am"cBAG "D"A3B|"G"D2G2 "D"BAGA|"G"B2G2 G3:|
